icons/desktop/16/svg/heart-rate-16.svg

<svg width="16" height="16" viewBox="0 0 16 16" fill="none" xmlns="http://www.w3.org/2000/svg">
<path d="M7.36035 5.94434C7.67629 4.78261 9.28905 4.68187 9.74414 5.7998L10.4043 7.42285H12.249C12.6631 7.42286 12.9988 7.75884 12.999 8.17285C12.9989 8.58693 12.6631 8.92284 12.249 8.92285H10.2422C9.7936 8.92285 9.38361 8.68489 9.15918 8.30762L9.0752 8.1377L8.62109 7.02246L7.81641 10.0029C7.49938 11.1771 5.86755 11.264 5.42578 10.1318L4.95508 8.92188H3.75C3.33588 8.92188 3.00015 8.58596 3 8.17188C3.00021 7.75784 3.33592 7.42188 3.75 7.42188H5.11914C5.63717 7.42193 6.10333 7.74018 6.29199 8.22461L6.55859 8.90625L7.36035 5.94434Z" fill="black"/>
<path fill-rule="evenodd" clip-rule="evenodd" d="M8 2C9.4553 2 11.0559 2.05884 12.7773 2.21289L13.5225 2.28516L13.7812 2.32422C15.0525 2.57884 16 3.69884 16 5.02539V10.9746C16 12.3741 14.9513 13.5653 13.5459 13.7119C11.8584 13.8874 10.0011 14 8 14C6.33683 14 4.48373 13.9228 2.47754 13.7148C1.07827 13.5696 0 12.3897 0 10.9746V5.02539C0 3.62588 1.04865 2.43465 2.4541 2.28809C4.14156 2.11265 5.99888 2 8 2ZM8 3.5C6.05512 3.5 4.24992 3.60971 2.60938 3.78027C1.9811 3.84597 1.5 4.38109 1.5 5.02539V10.9746C1.5 11.6135 1.99009 12.1559 2.63281 12.2227C4.58244 12.4247 6.3833 12.5 8 12.5C9.94487 12.5 11.7501 12.3903 13.3906 12.2197C14.0189 12.154 14.5 11.6189 14.5 10.9746V5.02539C14.5 4.38652 14.0099 3.84407 13.3672 3.77734C11.4176 3.5753 9.6167 3.5 8 3.5Z" fill="black"/>
</svg>

<!-- This Source Code Form is subject to the terms of the Mozilla Public
   - License, v. 2.0. If a copy of the MPL was not distributed with this
   - file, You can obtain one at http://mozilla.org/MPL/2.0/. -->
<svg xmlns="http://www.w3.org/2000/svg" width="16" height="16" fill="context-fill" fill-opacity="context-fill-opacity" viewBox="0 0 16 16">
    <path d="M7.36 5.944C7.676 4.783 9.29 4.682 9.744 5.8l.66 1.623h1.845a.75.75 0 0 1 0 1.5h-2.007a1.26 1.26 0 0 1-1.083-.615l-.084-.17-.454-1.116-.805 2.98c-.317 1.175-1.948 1.262-2.39.13l-.47-1.21H3.75a.75.75 0 0 1 0-1.5h1.37c.517 0 .983.318 1.172.803l.267.681z" />
    <path fill-rule="evenodd" d="M8 2c1.455 0 3.056.059 4.777.213l.746.072.258.04A2.76 2.76 0 0 1 16 5.024v5.95c0 1.4-1.049 2.59-2.454 2.737a53.6 53.6 0 0 1-11.068.003A2.76 2.76 0 0 1 0 10.975v-5.95c0-1.4 1.049-2.59 2.454-2.737A54 54 0 0 1 8 2m0 1.5c-1.945 0-3.75.11-5.39.28-.629.066-1.11.601-1.11 1.245v5.95c0 .639.49 1.18 1.133 1.248a52 52 0 0 0 10.758-.003c.628-.066 1.109-.601 1.109-1.245v-5.95c0-.638-.49-1.18-1.133-1.248A52 52 0 0 0 8 3.5" clip-rule="evenodd" />
</svg>
